images/zhuyin/16.svg

<svg width="50" height="50" viewBox="0 0 50 50" fill="none" xmlns="http://www.w3.org/2000/svg">
<path d="M27.625 13.8125C27.8906 13.8125 28.2812 14.0234 28.7969 14.4453C29.2812 14.7891 29.5234 15.1484 29.5234 15.5234C29.5234 15.7109 29.3438 15.8828 28.9844 16.0391C28.7031 16.1797 28.3125 16.5859 27.8125 17.2578C26.1562 19.3828 24.4062 21.0156 22.5625 22.1562C21.3125 22.9219 20.5 23.3047 20.125 23.3047C20.0625 23.3047 20.0312 23.2656 20.0312 23.1875C20.0312 23.1406 20.2344 22.9453 20.6406 22.6016C22.8125 20.8047 24.7031 18.7344 26.3125 16.3906C26.9844 15.5 27.2969 14.8281 27.25 14.375C27.25 14 27.375 13.8125 27.625 13.8125ZM29.0312 19.1562C29.25 19.1562 29.5859 19.2969 30.0391 19.5781C30.4922 19.9062 30.7188 20.2109 30.7188 20.4922C30.7188 20.5859 30.6094 20.7031 30.3906 20.8438C30.2344 20.9531 30.0469 21.1719 29.8281 21.5C28.9062 22.7031 27.9531 23.7969 26.9688 24.7812L27.3203 25.0625C27.7734 25.4375 28 25.7188 28 25.9062C28 25.9688 27.9688 26.0781 27.9062 26.2344C27.8438 26.4688 27.8125 26.9219 27.8125 27.5938C27.8125 28.7656 27.8594 29.9609 27.9531 31.1797C28.0469 32.4766 28.0938 33.4688 28.0938 34.1562C28.0938 34.625 28.0078 35.0078 27.8359 35.3047C27.6953 35.5391 27.5 35.6562 27.25 35.6562C27.0625 35.6562 26.8281 35.5156 26.5469 35.2344C26.2031 34.8906 26.0312 34.6328 26.0312 34.4609C26.0312 34.2109 26.0703 33.9062 26.1484 33.5469C26.2578 33.0156 26.3125 31.8438 26.3125 30.0312C26.2812 27.9688 26.1797 26.7656 26.0078 26.4219C25.9141 26.2344 25.8281 26.0781 25.75 25.9531C25.1719 26.4688 24.5781 26.9609 23.9688 27.4297C22.6406 28.3672 21.2344 29.1641 19.75 29.8203C19.3125 30.0234 19 30.125 18.8125 30.125C18.8125 30.0625 18.9922 29.8672 19.3516 29.5391C21.9141 27.6484 24.2578 25.3906 26.3828 22.7656C27.6328 21.2188 28.2969 20.1875 28.375 19.6719C28.5 19.3281 28.7188 19.1562 29.0312 19.1562Z" fill="#333333"/>
<path d="M28.7969 14.4453L28.4803 14.8323L28.4935 14.8431L28.5075 14.8531L28.7969 14.4453ZM28.9844 16.0391L28.785 15.5805L28.7727 15.5859L28.7608 15.5918L28.9844 16.0391ZM27.8125 17.2578L28.207 17.5653L28.2136 17.5563L27.8125 17.2578ZM22.5625 22.1562L22.8237 22.5826L22.8256 22.5815L22.5625 22.1562ZM20.6406 22.6016L20.3219 22.2163L20.3177 22.2199L20.6406 22.6016ZM26.3125 16.3906L25.9133 16.0895L25.9066 16.0984L25.9003 16.1076L26.3125 16.3906ZM27.25 14.375H26.75V14.4008L26.7527 14.4264L27.25 14.375ZM30.0391 19.5781L30.3323 19.1732L30.3179 19.1627L30.3027 19.1533L30.0391 19.5781ZM30.3906 20.8438L30.1202 20.4232L30.112 20.4285L30.1039 20.4341L30.3906 20.8438ZM29.8281 21.5L30.225 21.8041L30.235 21.791L30.2442 21.7774L29.8281 21.5ZM26.9688 24.7812L26.6152 24.4277L26.2202 24.8227L26.6564 25.1717L26.9688 24.7812ZM27.3203 25.0625L27.6391 24.6772L27.6327 24.6721L27.3203 25.0625ZM27.9062 26.2344L27.442 26.0487L27.4309 26.0765L27.4231 26.1055L27.9062 26.2344ZM27.9531 31.1797L28.4518 31.1436L28.4517 31.1413L27.9531 31.1797ZM27.8359 35.3047L28.2647 35.562L28.2687 35.5552L27.8359 35.3047ZM26.1484 33.5469L26.6371 33.6531L26.6382 33.6477L26.1484 33.5469ZM26.3125 30.0312H26.8126L26.8124 30.0237L26.3125 30.0312ZM25.75 25.9531L26.174 25.6881L25.8597 25.1853L25.4172 25.58L25.75 25.9531ZM23.9688 27.4297L24.2571 27.8382L24.2655 27.8323L24.2736 27.826L23.9688 27.4297ZM19.75 29.8203L19.5478 29.3629L19.5394 29.3668L19.75 29.8203ZM18.8125 30.125H18.3125V30.625H18.8125V30.125ZM19.3516 29.5391L19.0547 29.1367L19.0337 29.1522L19.0144 29.1698L19.3516 29.5391ZM26.3828 22.7656L26.7714 23.0802L26.7717 23.0799L26.3828 22.7656ZM28.375 19.6719L27.9051 19.501L27.8881 19.5478L27.8806 19.597L28.375 19.6719ZM27.625 14.3125C27.6367 14.3125 27.7141 14.3213 27.8796 14.4107C28.0368 14.4955 28.2361 14.6326 28.4803 14.8323L29.1135 14.0583C28.842 13.8362 28.5882 13.6568 28.3548 13.5308C28.1296 13.4092 27.8789 13.3125 27.625 13.3125V14.3125ZM28.5075 14.8531C28.9387 15.1591 29.0234 15.3877 29.0234 15.5234H30.0234C30.0234 14.9092 29.6238 14.4191 29.0862 14.0376L28.5075 14.8531ZM29.0234 15.5234C29.0234 15.4404 29.0678 15.408 29.0431 15.4316C29.0132 15.4602 28.9381 15.514 28.785 15.5805L29.1837 16.4976C29.39 16.4079 29.5845 16.2976 29.7343 16.1543C29.8892 16.0061 30.0234 15.794 30.0234 15.5234H29.0234ZM28.7608 15.5918C28.5438 15.7003 28.3287 15.8856 28.1201 16.1027C27.905 16.3263 27.6685 16.6138 27.4114 16.9593L28.2136 17.5563C28.4565 17.23 28.6653 16.9784 28.8409 16.7958C29.0228 16.6066 29.1437 16.5184 29.208 16.4863L28.7608 15.5918ZM27.4181 16.9504C25.7898 19.0396 24.0822 20.6281 22.2994 21.731L22.8256 22.5815C24.7303 21.4031 26.5227 19.726 28.2069 17.5652L27.4181 16.9504ZM22.3013 21.7299C21.6835 22.1083 21.1853 22.3849 20.8025 22.5653C20.3947 22.7574 20.1891 22.8047 20.125 22.8047V23.8047C20.4359 23.8047 20.824 23.6606 21.2287 23.4699C21.6584 23.2674 22.1915 22.9698 22.8237 22.5826L22.3013 21.7299ZM20.125 22.8047C20.2041 22.8047 20.3426 22.8349 20.4451 22.963C20.5306 23.0698 20.5312 23.1731 20.5312 23.1875H19.5312C19.5312 23.28 19.5476 23.4419 19.6643 23.5877C19.798 23.7549 19.9834 23.8047 20.125 23.8047V22.8047ZM20.5312 23.1875C20.5312 23.2692 20.5105 23.3302 20.4998 23.3579C20.4877 23.389 20.475 23.4111 20.4686 23.4217C20.4562 23.4423 20.4476 23.4516 20.4524 23.4458C20.4608 23.4359 20.484 23.4107 20.5301 23.3663C20.6201 23.2798 20.7628 23.1531 20.9636 22.9833L20.3177 22.2199C20.1122 22.3937 19.9502 22.5366 19.837 22.6454C19.7817 22.6987 19.7287 22.7526 19.6862 22.8032C19.6657 22.8277 19.6381 22.8627 19.6129 22.9043C19.6007 22.9245 19.5312 23.0345 19.5312 23.1875H20.5312ZM20.9594 22.9868C23.1673 21.1601 25.0893 19.0553 26.7247 16.6737L25.9003 16.1076C24.317 18.4134 22.4577 20.4493 20.3219 22.2163L20.9594 22.9868ZM26.7117 16.6917C27.0593 16.2309 27.3276 15.8091 27.5041 15.4296C27.677 15.0579 27.7842 14.6797 27.7473 14.3236L26.7527 14.4264C26.7627 14.5234 26.737 14.7077 26.5974 15.0079C26.4614 15.3002 26.2376 15.6597 25.9133 16.0895L26.7117 16.6917ZM27.75 14.375C27.75 14.3075 27.7558 14.2633 27.7615 14.2374C27.7673 14.2113 27.7708 14.2139 27.7598 14.2305C27.7465 14.2504 27.7213 14.2765 27.6845 14.2949C27.6678 14.3032 27.653 14.3078 27.6419 14.3102C27.631 14.3125 27.6249 14.3125 27.625 14.3125V13.3125C27.3543 13.3125 27.0943 13.4259 26.9277 13.6758C26.785 13.8898 26.75 14.1477 26.75 14.375H27.75ZM29.0312 19.6562C29.0445 19.6562 29.1121 19.6634 29.2542 19.7229C29.3893 19.7795 29.562 19.8705 29.7754 20.0029L30.3027 19.1533C30.063 19.0045 29.8412 18.8846 29.6403 18.8005C29.4465 18.7194 29.2367 18.6562 29.0312 18.6562V19.6562ZM29.7458 19.9831C30.1867 20.3023 30.2188 20.4755 30.2188 20.4922H31.2188C31.2188 19.9464 30.7977 19.5102 30.3323 19.1732L29.7458 19.9831ZM30.2188 20.4922C30.2188 20.417 30.2408 20.363 30.2544 20.3367C30.2675 20.3114 30.2775 20.3024 30.2712 20.3092C30.2657 20.3152 30.2518 20.3287 30.2253 20.3495C30.1992 20.37 30.1647 20.3946 30.1202 20.4232L30.661 21.2643C30.7865 21.1836 30.9073 21.0933 31.0022 20.9915C31.0866 20.9012 31.2188 20.7297 31.2188 20.4922H30.2188ZM30.1039 20.4341C29.8667 20.6002 29.6365 20.8861 29.4121 21.2226L30.2442 21.7774C30.4573 21.4577 30.6021 21.3061 30.6774 21.2534L30.1039 20.4341ZM29.4312 21.1959C28.5215 22.3831 27.5828 23.4601 26.6152 24.4277L27.3223 25.1348C28.3235 24.1336 29.291 23.0231 30.225 21.8041L29.4312 21.1959ZM26.6564 25.1717L27.008 25.4529L27.6327 24.6721L27.2811 24.3908L26.6564 25.1717ZM27.0015 25.4477C27.2162 25.6253 27.3574 25.765 27.4407 25.8684C27.4819 25.9195 27.5006 25.9516 27.5073 25.9656C27.5148 25.9812 27.5 25.9581 27.5 25.9062H28.5C28.5 25.6323 28.3474 25.3998 28.2195 25.241C28.0762 25.0631 27.8776 24.8747 27.6391 24.6773L27.0015 25.4477ZM27.5 25.9062C27.5 25.8827 27.5027 25.8698 27.5022 25.8725C27.502 25.8738 27.5004 25.8818 27.4958 25.8978C27.4865 25.9304 27.4696 25.9797 27.442 26.0487L28.3705 26.4201C28.4054 26.3328 28.4354 26.2493 28.4573 26.1725C28.4771 26.1033 28.5 26.0074 28.5 25.9062H27.5ZM27.4231 26.1055C27.3413 26.4125 27.3125 26.9293 27.3125 27.5938H28.3125C28.3125 26.9144 28.3462 26.525 28.3894 26.3632L27.4231 26.1055ZM27.3125 27.5938C27.3125 28.779 27.3599 29.9871 27.4546 31.218L28.4517 31.1413C28.3588 29.9348 28.3125 28.7523 28.3125 27.5938H27.3125ZM27.4544 31.2157C27.5479 32.5092 27.5938 33.4871 27.5938 34.1562H28.5938C28.5938 33.4504 28.5458 32.444 28.4518 31.1436L27.4544 31.2157ZM27.5938 34.1562C27.5938 34.5679 27.5178 34.8563 27.4032 35.0542L28.2687 35.5552C28.4979 35.1593 28.5938 34.6821 28.5938 34.1562H27.5938ZM27.4072 35.0474C27.3468 35.1482 27.3055 35.1562 27.25 35.1562V36.1562C27.6945 36.1562 28.0439 35.93 28.2647 35.5619L27.4072 35.0474ZM27.25 35.1562C27.2792 35.1562 27.2637 35.1658 27.1908 35.122C27.1206 35.0799 27.024 35.0044 26.9004 34.8808L26.1933 35.5879C26.351 35.7456 26.5122 35.881 26.6763 35.9795C26.8378 36.0764 27.0333 36.1562 27.25 36.1562V35.1562ZM26.9004 34.8808C26.7403 34.7207 26.6366 34.5965 26.5762 34.5059C26.5068 34.4018 26.5312 34.3966 26.5312 34.4609H25.5312C25.5312 34.6972 25.6416 34.9067 25.7441 35.0606C25.8556 35.2277 26.0097 35.4043 26.1933 35.5879L26.9004 34.8808ZM26.5312 34.4609C26.5312 34.2591 26.5633 33.9923 26.637 33.6531L25.6598 33.4407C25.5773 33.8202 25.5312 34.1628 25.5312 34.4609H26.5312ZM26.6382 33.6477C26.7598 33.057 26.8125 31.8309 26.8125 30.0312H25.8125C25.8125 31.8566 25.7558 32.9743 25.6587 33.446L26.6382 33.6477ZM26.8124 30.0237C26.7967 28.9877 26.7633 28.1582 26.7111 27.54C26.6851 27.2312 26.6537 26.9677 26.6159 26.7538C26.5802 26.5516 26.532 26.3522 26.455 26.1983L25.5606 26.6455C25.5606 26.6455 25.5614 26.6471 25.563 26.6508C25.5645 26.6544 25.5665 26.6595 25.569 26.6664C25.574 26.6803 25.5801 26.6993 25.587 26.7242C25.6009 26.7746 25.6159 26.8417 25.6312 26.9279C25.6617 27.1007 25.6899 27.3313 25.7147 27.6241C25.764 28.209 25.797 29.0123 25.8126 30.0388L26.8124 30.0237ZM26.455 26.1983C26.3569 26.002 26.2632 25.8308 26.174 25.6881L25.326 26.2181C25.3931 26.3254 25.4712 26.4668 25.5606 26.6455L26.455 26.1983ZM25.4172 25.58C24.848 26.0876 24.2636 26.5721 23.6639 27.0334L24.2736 27.826C24.8926 27.3498 25.4957 26.8499 26.0828 26.3263L25.4172 25.58ZM23.6804 27.0212C22.3793 27.9397 21.0019 28.7202 19.5478 29.363L19.9522 30.2776C21.4669 29.608 22.902 28.7947 24.2571 27.8382L23.6804 27.0212ZM19.5394 29.3668C19.3313 29.4634 19.1635 29.5309 19.033 29.5733C18.895 29.6181 18.8286 29.625 18.8125 29.625V30.625C18.9839 30.625 19.1675 30.5811 19.342 30.5243C19.524 30.4652 19.7312 30.3803 19.9606 30.2738L19.5394 29.3668ZM19.3125 30.125C19.3125 30.2247 19.2804 30.2932 19.2735 30.3078C19.2629 30.3306 19.2544 30.342 19.2564 30.3391C19.2602 30.3337 19.2767 30.312 19.3152 30.2702C19.3903 30.1886 19.5125 30.0692 19.6887 29.9083L19.0144 29.1698C18.8313 29.3371 18.6839 29.4794 18.5793 29.5931C18.528 29.6489 18.4771 29.7083 18.436 29.7673C18.4156 29.7966 18.3902 29.8362 18.3683 29.8829C18.3502 29.9214 18.3125 30.0097 18.3125 30.125H19.3125ZM19.6484 29.9414C22.2471 28.0241 24.6213 25.7363 26.7714 23.0802L25.9942 22.451C23.8943 25.045 21.581 27.2728 19.0547 29.1367L19.6484 29.9414ZM26.7717 23.0799C27.402 22.2999 27.8929 21.6397 28.2387 21.1027C28.5708 20.587 28.8127 20.1207 28.8694 19.7468L27.8806 19.597C27.8592 19.7387 27.73 20.0458 27.398 20.5613C27.0797 21.0556 26.6136 21.6845 25.9939 22.4514L26.7717 23.0799ZM28.8449 19.8427C28.8853 19.7315 28.9254 19.6911 28.9417 19.6783C28.9522 19.6701 28.9725 19.6562 29.0312 19.6562V18.6562C28.7775 18.6562 28.5322 18.7283 28.3239 18.892C28.1215 19.051 27.9897 19.2685 27.9051 19.501L28.8449 19.8427Z" fill="#333333"/>
</svg>

<svg xmlns="http://www.w3.org/2000/svg" width="50" height="50" fill="none"><path fill="#333" d="M27.625 13.813c.266 0 .656.21 1.172.632.484.344.726.703.726 1.078 0 .188-.18.36-.539.516-.28.14-.672.547-1.172 1.219-1.656 2.125-3.406 3.758-5.25 4.898-1.25.766-2.062 1.149-2.437 1.149-.063 0-.094-.04-.094-.117 0-.047.203-.243.61-.586a30.22 30.22 0 0 0 5.672-6.211c.671-.891.984-1.563.937-2.016 0-.375.125-.563.375-.563Zm1.406 5.343c.219 0 .555.14 1.008.422.453.328.68.633.68.914 0 .094-.11.211-.328.352-.157.11-.344.328-.563.656a33.114 33.114 0 0 1-2.86 3.281l.352.282c.453.375.68.656.68.843 0 .063-.031.172-.094.328-.062.235-.093.688-.093 1.36 0 1.172.046 2.367.14 3.586.094 1.297.14 2.289.14 2.976 0 .469-.085.852-.257 1.149-.14.234-.336.351-.586.351-.188 0-.422-.14-.703-.422-.344-.343-.516-.601-.516-.773 0-.25.04-.555.117-.914.11-.531.165-1.703.165-3.516-.032-2.062-.133-3.265-.305-3.61a5.76 5.76 0 0 0-.258-.468 31.863 31.863 0 0 1-1.781 1.477 24.42 24.42 0 0 1-4.219 2.39c-.438.203-.75.305-.938.305 0-.063.18-.258.54-.586 2.562-1.89 4.906-4.148 7.03-6.773 1.25-1.547 1.915-2.578 1.993-3.094.125-.344.344-.516.656-.516Z"/><path fill="#333" d="m28.797 14.445-.317.387.014.011.014.01.289-.408Zm.187 1.594-.199-.459-.012.006-.012.006.223.447Zm-1.172 1.219.395.307.007-.009-.401-.298Zm-5.25 4.898.262.427.002-.002-.264-.425Zm-1.921.446-.32-.386-.003.004.323.382Zm5.672-6.211-.4-.301-.006.008-.007.01.413.283Zm.937-2.016h-.5v.026l.003.025.497-.051Zm2.79 5.203.292-.405-.014-.01-.015-.01-.264.425Zm.35 1.266-.27-.42-.008.005-.008.005.287.41Zm-.562.656.397.304.01-.013.01-.014-.417-.277Zm-2.86 3.281-.353-.353-.395.395.436.349.313-.39Zm.352.282.32-.386-.007-.005-.313.39Zm.586 1.171-.464-.185-.011.027-.008.03.483.128Zm.047 4.946.499-.036v-.003l-.499.039Zm-.117 4.125.429.257.004-.007-.433-.25Zm-1.688-1.758.49.106v-.005l-.49-.101Zm.165-3.516h.5v-.007l-.5.007Zm-.563-4.078.424-.265-.314-.503-.443.395.333.373Zm-1.781 1.477.288.408.008-.006.009-.006-.305-.396Zm-4.219 2.39-.202-.457-.009.004.211.453Zm-.938.305h-.5v.5h.5v-.5Zm.54-.586-.297-.402-.021.015-.02.018.338.37Zm7.03-6.773.39.314-.39-.314Zm1.993-3.094-.47-.171-.017.047-.007.049.494.075Zm-.75-5.36c.012 0 .09.01.255.099.157.085.356.222.6.421l.633-.774a4.967 4.967 0 0 0-.758-.527c-.225-.122-.476-.219-.73-.219v1Zm.883.541c.43.306.515.535.515.67h1c0-.614-.4-1.104-.937-1.485l-.578.815Zm.515.67c0-.083.045-.115.02-.091a.933.933 0 0 1-.258.149l.399.917c.206-.09.4-.2.55-.344a.871.871 0 0 0 .29-.63h-1Zm-.262.069c-.217.108-.432.294-.64.51a9.034 9.034 0 0 0-.71.857l.803.597c.242-.326.451-.578.627-.76.182-.19.303-.278.367-.31l-.447-.894Zm-1.343 1.358c-1.628 2.09-3.336 3.678-5.119 4.781l.527.85c1.904-1.178 3.697-2.855 5.38-5.016l-.788-.615Zm-5.117 4.78c-.617.378-1.116.655-1.498.835-.408.192-.614.24-.678.24v1c.31 0 .699-.144 1.104-.335.43-.203.963-.5 1.595-.887l-.523-.853Zm-2.176 1.075c.08 0 .218.03.32.158.086.107.086.21.086.224h-1c0 .093.017.255.133.4.134.168.32.218.461.218v-1Zm.406.383a.473.473 0 0 1-.062.234l-.017.024c.009-.01.032-.035.078-.08.09-.086.233-.213.434-.383l-.646-.763c-.206.174-.368.317-.481.425a2.148 2.148 0 0 0-.15.158.827.827 0 0 0-.074.101c-.012.02-.082.13-.082.284h1Zm.428-.201a30.722 30.722 0 0 0 5.766-6.313l-.825-.566a29.72 29.72 0 0 1-5.578 6.108l.637.77Zm5.753-6.295c.347-.461.616-.883.792-1.262.173-.372.28-.75.243-1.106l-.994.102c.01.097-.016.282-.156.582-.136.292-.36.652-.684 1.082l.799.602Zm1.038-2.317c0-.068.006-.112.012-.138.005-.026.009-.023-.002-.007a.2.2 0 0 1-.118.08l-.017.002v-1c-.27 0-.53.114-.697.364-.143.214-.178.472-.178.699h1Zm1.281 5.281a.72.72 0 0 1 .223.067c.135.056.308.148.521.28l.528-.85a4.818 4.818 0 0 0-.663-.352 1.616 1.616 0 0 0-.609-.145v1Zm.715.327c.44.32.473.492.473.51h1c0-.547-.421-.983-.887-1.32l-.586.81Zm.473.51a.34.34 0 0 1 .035-.156c.013-.026.023-.035.017-.028a1.379 1.379 0 0 1-.151.114l.541.841c.125-.08.246-.17.341-.273a.738.738 0 0 0 .217-.499h-1Zm-.115-.059c-.237.166-.467.452-.692.789l.832.554c.213-.32.358-.47.433-.524l-.573-.819Zm-.673.762a32.612 32.612 0 0 1-2.816 3.232l.707.707a33.603 33.603 0 0 0 2.903-3.33l-.794-.61Zm-2.775 3.976.352.28.625-.78-.352-.281-.625.78Zm.346.276c.214.177.355.317.439.42.04.052.06.084.066.098.008.015-.007-.008-.007-.06h1c0-.274-.153-.506-.28-.665a4.155 4.155 0 0 0-.58-.564l-.639.77Zm.498.458c0-.023.003-.036.002-.034l-.006.026c-.01.032-.026.082-.054.15l.928.372c.035-.087.065-.17.087-.248a.983.983 0 0 0 .043-.266h-1Zm-.077.2c-.082.306-.11.823-.11 1.488h1c0-.68.033-1.069.076-1.23l-.966-.259Zm-.11 1.488c0 1.185.047 2.393.142 3.624l.997-.077a46.208 46.208 0 0 1-.14-3.547h-1Zm.141 3.622c.094 1.293.14 2.271.14 2.94h1c0-.706-.048-1.712-.142-3.012l-.998.072Zm.14 2.94c0 .412-.076.7-.19.898l.865.501c.229-.396.325-.873.325-1.399h-1Zm-.187.891c-.06.101-.102.11-.157.11v1c.445 0 .794-.227 1.015-.595l-.858-.515Zm-.157.11c.03 0 .014.009-.06-.035a1.611 1.611 0 0 1-.29-.241l-.707.707c.158.158.32.293.483.392.162.096.357.176.574.176v-1Zm-.35-.276a2.653 2.653 0 0 1-.324-.375c-.07-.104-.045-.11-.045-.045h-1c0 .236.11.446.213.6.112.167.266.343.45.527l.706-.707Zm-.369-.42c0-.202.032-.469.106-.808l-.977-.212a4.91 4.91 0 0 0-.129 1.02h1Zm.107-.813c.122-.591.174-1.817.174-3.617h-1c0 1.826-.056 2.943-.153 3.415l.98.202Zm.174-3.624a37.905 37.905 0 0 0-.1-2.484 8.976 8.976 0 0 0-.096-.786 2.105 2.105 0 0 0-.161-.556l-.894.447.002.006a2.29 2.29 0 0 1 .068.277c.03.173.059.403.084.696.049.585.082 1.388.098 2.415l1-.015Zm-.357-3.826a6.237 6.237 0 0 0-.281-.51l-.848.53c.067.107.145.249.235.427l.894-.447Zm-1.038-.618a31.38 31.38 0 0 1-1.753 1.453l.61.793a32.39 32.39 0 0 0 1.809-1.5l-.666-.746Zm-1.737 1.441a23.912 23.912 0 0 1-4.132 2.342l.404.915a24.92 24.92 0 0 0 4.305-2.44l-.577-.817Zm-4.14 2.346a4.7 4.7 0 0 1-.507.206.89.89 0 0 1-.22.052v1c.17 0 .355-.044.529-.1.182-.06.39-.145.619-.251l-.422-.907Zm-.227.758a.43.43 0 0 1-.04.183c-.01.023-.019.034-.017.031a.819.819 0 0 1 .06-.069c.074-.081.197-.2.373-.362l-.675-.738c-.183.167-.33.31-.435.423a1.713 1.713 0 0 0-.143.174.793.793 0 0 0-.068.116.57.57 0 0 0-.055.242h1Zm.335-.184c2.6-1.917 4.973-4.205 7.123-6.86l-.777-.63c-2.1 2.594-4.413 4.822-6.94 6.686l.594.804Zm7.124-6.861c.63-.78 1.12-1.44 1.467-1.977.332-.516.574-.982.63-1.356l-.988-.15c-.022.142-.151.449-.483.964-.318.495-.784 1.123-1.404 1.89l.778.629Zm2.073-3.237c.04-.111.08-.152.097-.165.01-.008.03-.022.09-.022v-1c-.255 0-.5.072-.708.236a1.339 1.339 0 0 0-.419.609l.94.342Z"/></svg>
